X: 30053
T: Off To The Hunt
R: jig
M: 6/8
K: Edorian
|:~E3 EFA|B3 AFE|D2D FED|AFD FED|
E3 EFA|BAB dfe|BAG FGA|1 BEE E2D:|2 BEE E2^d||
|:e^de E^DE|e^de E2e|d2D DCD|FEF DEF|
~G3 AGA|BAB dfe|BAG FGA|1 BEE E2^d:|2 BEE E2D||

